dist/icons/svgs/play-circle-outline.svg

<svg xmlns="http://www.w3.org/2000/svg" width="24" height="24" fill="currentcolor" class="icon-play-circle-outline" viewBox="0 0 24 24">
  <path d="M20.125 12C20.125 9.10938 18.5625 6.45312 16.0625 4.96875C13.5234 3.52344 10.4375 3.52344 7.9375 4.96875C5.39844 6.45312 3.875 9.10938 3.875 12C3.875 14.9297 5.39844 17.5859 7.9375 19.0703C10.4375 20.5156 13.5234 20.5156 16.0625 19.0703C18.5625 17.5859 20.125 14.9297 20.125 12ZM2 12C2 8.44531 3.875 5.16406 7 3.36719C10.0859 1.57031 13.875 1.57031 17 3.36719C20.0859 5.16406 22 8.44531 22 12C22 15.5938 20.0859 18.875 17 20.6719C13.875 22.4688 10.0859 22.4688 7 20.6719C3.875 18.875 2 15.5938 2 12ZM9.34375 7.78125C9.61719 7.58594 10.0078 7.58594 10.2812 7.78125L15.9062 11.2188C16.1797 11.375 16.375 11.6875 16.375 12.0391C16.375 12.3516 16.1797 12.6641 15.9062 12.8203L10.2812 16.2578C10.0078 16.4531 9.61719 16.4531 9.34375 16.2969C9.03125 16.1016 8.875 15.7891 8.875 15.4766V8.5625C8.875 8.25 9.03125 7.9375 9.34375 7.78125Z"/>
</svg>

<svg xmlns="http://www.w3.org/2000/svg" width="24" height="24" fill="currentColor" class="icon-play-circle-outline" viewBox="0 0 24 24">
  <path d="M20.125 12c0-2.89-1.562-5.547-4.062-7.031-2.54-1.446-5.625-1.446-8.125 0C5.398 6.453 3.875 9.109 3.875 12a8.13 8.13 0 0 0 4.063 7.07c2.5 1.446 5.585 1.446 8.125 0 2.5-1.484 4.062-4.14 4.062-7.07M2 12a9.93 9.93 0 0 1 5-8.633c3.086-1.797 6.875-1.797 10 0 3.086 1.797 5 5.078 5 8.633 0 3.594-1.914 6.875-5 8.672-3.125 1.797-6.914 1.797-10 0C3.875 18.875 2 15.594 2 12m7.344-4.219a.82.82 0 0 1 .937 0l5.625 3.438a.95.95 0 0 1 .469.82.94.94 0 0 1-.469.781l-5.625 3.438a.9.9 0 0 1-.937.039.96.96 0 0 1-.469-.82V8.563a.86.86 0 0 1 .469-.782"/>
</svg>
